X:1
T:James Gibb editions
T:Beatus homo qui invenit - Lasso
%%score [ 1 2 ]
L:1/8
Q:1/4=100
M:4/4
K:Eb
V:1 treble nm="Soprano" snm="S"
V:2 treble nm="Alto" snm="A"
V:1
"^Beatus homo qui invenit""^Orlando de Lassus\n(1530-94)" z8 | c8 | e4 c4 | z2 F2 A2 F2 | _d4 c4 | %5
w: |Be-|a- tus,|be- a- tus|ho- mo|
 z2 (c3 dec | d2) e2 c2 G2 |[M:4/4] z2 (G3 ABc | de f2) B2 (c2- | cB/A/ G2) A2 c2- | c2 c2 F2 A2 | %11
w: qui * * *|* in- ve- nit,|qui * * *|* * * in- ve\-|* * * * nit sa\-|* pi- en- ti-|
 G4 z2 c2- | c2 d2 e4 | c2 (B4 AG | e2 (d3 efd | e2) c4 _d2 | c4 z2 c2- | c2 A2 A4 | z2 A4 F2 | %19
w: am et|* qui af-|flu- it * *|* pru\- * * *|* den- ti-|a: me\-|* li- or,|me- li-|
 F2 c4 A2 | B2 c2 d2 (e2- | ed) c2) (Bc_dB | c4 B4 | z2 c2 A3 A | B2 c2 _d4 | c2 F2 (B2 AG | %26
w: or est ac-|qui- si- ti- o|* * * e- * * *|* ius|ne- go- ti-|a- ti- o-|ne ar- gen\- * *|
 A2) B2 z2 A2 | (e6 dc) | B2) c2 d4 | F2 (f3 edc | BA G2) (e3 d | cB c2) (cBAG | %32
w: * ti, et|au\- * *|* ri pri-|mi et * * *|* * * pu\- *|* * * ris\- * * *|
 FGAB"^rit."[Q:1/4=97] c3[Q:1/4=95] d |[Q:1/4=93] e[Q:1/4=92]c[Q:1/4=89] f4)[Q:1/4=85] =e2 | %34
w: |* * * si-|
[Q:1/4=84] !fermata!f8 |] %35
w: mi.|
V:2
 F8 | A4 F4 | z2 C2 A2 F2 | (A3 G FC _D2) | B,2 (F3 GAF | G2) A2 F2 C2 | z2 (C3 DEF) | %7
w: Be-|a- tus,|be- a- tus|ho\- * * * *|mo qui * * *|* in- ve- nit,|qui * * *|
[M:4/4] (GA B2) E2 (G2- | GF/E/ D2) E2 (A,B, | CDEC F2) =E2 | (FC A3 G F2- | F2) =E2 F4- | %12
w: * * * in- ve\-|* * * * nit sa\- *|* * * * * pi-|en\- * * * *|* ti- am|
 F4 z2 C2- | C2 D2 E4 | C2 B,2 B4 | G2 A2 F4 | z2 A4 F2 | F4 z2 F2- | F2 _D2 D4 | A4 F4 | %20
w: * et|* qui af-|flu- it pru-|den- ti- a:|me- li-|or, me\-|* li- or|est ac-|
 G2 A2 F2 E2 | (CDEF GF B2-) | (BA A3 G/F/ G2) | A4 z2 F2 | E3 E F2 G2 | A4 G2 C2 | (F2 ED E2) F2 | %27
w: qui- si- ti- o|e\- * * * * * *||ius ne-|go- ti- a- ti-|o- ne ar-|gen\- * * * ti,|
 z2 C2 (G4- | G2 FE D2) E2 | D2 B,2 (B3 A | GFED C2) (A2- | AGFE F2) (cB | AG F3"^rit." G A2- | %33
w: et au\-|* * * * ri|pri- mi et *|* * * * * pu\-|* * * * * ris\- *||
 A2 GF G2) G2 | !fermata!F8 |] %35
w: * * * * si-|mi.|

